src/assets/icons/sort-numeric-up-alt.svg

<svg width="14" height="14" viewBox="0 0 14 14" fill="none" xmlns="http://www.w3.org/2000/svg">
<g id="sort-numeric-up-alt">
<g clip-path="url(#clip0_156_4673)">
<path id="Vector" fill-rule="evenodd" clip-rule="evenodd" d="M3.35967 0.198411C3.42462 0.133463 3.49948 0.0844595 3.57938 0.0514016C3.658 0.0187984 3.74409 0.000575501 3.83438 1.34028e-05L3.83868 0L3.84299 1.34025e-05C4.01492 0.00109963 4.18651 0.0672323 4.31769 0.198411L6.57575 2.45648C6.8403 2.72102 6.8403 3.14994 6.57575 3.41449C6.31121 3.67904 5.88229 3.67904 5.61774 3.41449L4.5161 2.31285V13.3226C4.5161 13.6967 4.21281 14 3.83868 14C3.46455 14 3.16126 13.6967 3.16126 13.3226V2.31285L2.05963 3.41449C1.79508 3.67904 1.36616 3.67904 1.10161 3.41449C0.837061 3.14994 0.837061 2.72102 1.10161 2.45648L3.35967 0.198411ZM10.8387 12.8711V9.20459L10.491 9.39832C10.1642 9.58041 9.75159 9.46309 9.5695 9.13626C9.3874 8.80944 9.50473 8.39688 9.83155 8.21479L10.4222 7.88567C10.7913 7.61994 11.2442 7.62328 11.5936 7.81585C11.9537 8.01432 12.1935 8.40225 12.1935 8.8517V12.8711C12.1935 13.2452 11.8902 13.5485 11.5161 13.5485C11.142 13.5485 10.8387 13.2452 10.8387 12.8711ZM11.0645 1.80645C10.6904 1.80645 10.3871 2.10974 10.3871 2.48387C10.3871 2.858 10.6904 3.16129 11.0645 3.16129C11.4386 3.16129 11.7419 2.858 11.7419 2.48387C11.7419 2.10974 11.4386 1.80645 11.0645 1.80645ZM11.5318 4.46214C11.3254 4.764 10.9765 4.96774 10.5948 4.96774H10.1613C9.78713 4.96774 9.48384 5.27103 9.48384 5.64516C9.48384 6.01929 9.78713 6.32258 10.1613 6.32258H10.5948C11.8994 6.32258 13.012 5.27742 13.0776 3.96724C13.0968 3.66668 13.0968 3.32503 13.0967 2.95247V2.95245V2.93548V2.48387C13.0967 1.36149 12.1869 0.451613 11.0645 0.451613C9.9421 0.451613 9.03223 1.36149 9.03223 2.48387C9.03223 3.60626 9.9421 4.51613 11.0645 4.51613C11.2253 4.51613 11.3818 4.49745 11.5318 4.46214Z" fill="black"/>
</g>
</g>
<defs>
<clipPath id="clip0_156_4673">
<rect width="14" height="14" fill="white"/>
</clipPath>
</defs>
</svg>

<svg xmlns="http://www.w3.org/2000/svg" fill="none" viewBox="0 0 14 14"><g clip-path="url(#a)"><path fill="#000" fill-rule="evenodd" d="M3.36.198A.68.68 0 0 1 3.834 0h.009a.68.68 0 0 1 .475.198l2.258 2.258a.677.677 0 1 1-.958.958L4.516 2.313v11.01a.677.677 0 0 1-1.355 0V2.313L2.06 3.414a.677.677 0 0 1-.958-.958zm7.479 12.673V9.205l-.348.193a.677.677 0 0 1-.66-1.183l.591-.33a1.09 1.09 0 0 1 1.172-.07c.36.2.6.587.6 1.037v4.02a.677.677 0 0 1-1.355 0m.226-11.065a.677.677 0 1 0 0 1.355.677.677 0 0 0 0-1.355m.467 2.656a1.15 1.15 0 0 1-.937.506h-.434a.677.677 0 1 0 0 1.355h.434c1.304 0 2.417-1.046 2.483-2.356.019-.3.019-.642.019-1.015v-.468a2.032 2.032 0 1 0-1.565 1.978" clip-rule="evenodd"/></g><defs><clipPath id="a"><path fill="#fff" d="M0 0h14v14H0z"/></clipPath></defs></svg>
